X:1
T:Donna la bella
T:Donna la bella
T:Marco Antonio Pordenon
T:Source:  Harmonia celeste---Anversa---P.Phalesio & G.Bellero---1583. Editor: André Vierendeels (19/11/13).  
T:Notes:  Original clefs : G2, C2, C3, F3 Editorial accidentals above the staff
C:Marco Antonio Pordenon
%%score [ 1 2 [ 3 4 ] ]
L:1/8
Q:1/4=120
M:2/2
K:F
V:1 treble nm="Canto" snm="S"
V:2 treble nm="Alto" snm="A"
V:3 treble-8 nm="Tenor 1" snm="T 1"
V:4 treble-8 nm="Tenor 2" snm="T 2"
V:1
 f4 f2 c2 | d2 e2 f4 | c2 f3 f c2 | d2 e2 f4 | c4 d4 | c8 | z2 f2 e2 d2- | d2 c4 c2 | f4 e4 | %9
w: Don- na la|bel- la ma-|no, don- na la|bel- * *|la ma-|no,|che- per do-|* nar por-|ge- ste,|
 z2 c2 f4 | e4 c4- | c2 A2 G4 | A4 c4 | c2 B2 c2 d2 | c4 c2 e2 | e2 d2 e2 f2 | e4 e4 | z8 | %18
w: ra- pi|men- tre|_ voi de-|ste, ca-|ra- la- dra d'a-|mor, ca- ra-|la- * * dra|d'a- mor,||
 c4 B2 B2 | A4 G4 | d4 G4 | z2 g2 f4 | e8 | z8 | z4 c4 | d2 f2 e4 | z4 c4 | d2 f2 e2 f2 | d4 c4 | %29
w: se nel do-|nar to-|glie- te,|to- glie-|te,||ma|cer- to voi,|ma|cer- to voi do-|na- te,|
 z8 | c6 c2 | f4 e2 d2 | c2 A4 B2 | c2 c4 B2 | A4 c4 | B4 A4 | G8 | A8 | z8 | z4 c4 | A2 G2 A2 B2 | %41
w: |per po-|ter poi ra-|pir, per po-|ter poi ra-|pir, quel|che voi|da-|te,||tal-|ho- ra mi ren-|
 c4 c4 | z8 | z4 z2 F2 | B2 A2 B2 c2 | d4 c4- | c4 f4 | d4 c4 | d2 c2 B4 | A8 | z2 f2 e2 d2 | %51
w: de- te,||tal-|ho- ra mi ren-|de- te,|_ no'l|fa- te'ad|al- tro fi-|ne,|che per po-|
 c2 c2 d4 | c4 B2 A2 | G4 F4 | z8 | z4 c4 | B2 A2 c4 | c8 | z4 f4 | e2 d2 c4- | c2 B2 A4 | A6 A2 | %62
w: ter- ne far|no- ve ra-|pi- ne,||no-|ve ra- pi-|ne,|che|per po- ter-|* ne far|no- ve|
 A4 F4- | F2 ED E4 | F8 |] %65
w: ra- pi-||ne.|
V:2
 z4 F4 | F2 C2 D2 E2 | F4 A2 A2- | A2 G2 F2 A2- | A2 A2 B4 | A4 A4 | G2 F2 G2 B2 | A2 A2 G2 A2 | %8
w: Don-|na la bel- la|ma- no, don-|* na la bel-|* la ma-|no, che|per do- nar, che|per do- nar por-|
 F4 G4 | z4 F4 | c4 A3 A | G2 F4 E2 | F4 A4 | A2 G2 A2 B2 | A4 A2 G2 | c2 A2 c2 c2 | c4 c4 | z8 | %18
w: ge- ste,|ra-|pi men- tre|voi de- *|ste, ca-|ra- la- dra d'a-|mor, ca- ra-|la- * * dra|d'a- mor,||
 z8 | z4 G4 | F4 E4 | A2 G2 A2 D2 | G4 G4- | G2 c2 B2 A2 | G4 A4 | F4 G2 c2 | B2 A2 A2 G2 | %27
w: |se|nel do-|nar to- glie- *|te,- ma|_ cer- to voi|do- na-|* te, ma|cer- to voi do-|
 F4 G2 A2 | B2 F2 A2 A2 | G4 G4 | A6 G2 | F4 G2 G2 | A2 E4 G2 | A4 G2 G2 | E4 A4 | F4 c4 | c8 | %37
w: na- te, ma|cer- to voi do-|na- te,|per po-|ter poi ra-|pir, per po-|ter poi ra-|pir, quel|che voi|da-|
 c4 C4 | F2 E2 F2 G2 | A4 A4 | z8 | z4 F4 | D2 C2 D2 E2 | F4 F2 F2 | G2 F2 G3 A | B2 B2 G4 | %46
w: te, e|s'el ru- ba- to|co- re,||e|s'el ru- ba- to|co- re, tal-|ho- ra mi _|_ ren- de-|
 A4 c4 | B4 A4 | F2 A2 G4 | E4 E4 | F2 F2 G4 | A2 F4 G2 | A2 F2 G2 F2- | F2 E2 F2 D2 | %54
w: te, no'l|fa- te'ad|al- tro fi-|ne, che|per po- ter-|ne far no-|ve ra- pi- *|* * ne, che|
 F2 G2 A2 A2 | G4 A4 | G2 F2 G4 | A8 | z2 E2 FG AB | c2 B2 A2 A2 | G4 E4 | F8- | F4 C4 | C8 | %64
w: per po- ter ne|far no-|ve ra- pi-|ne,|che per _ _ _|_ po- ter- ne|far no-|ve|_ ra-|pi-|
 A,8 |] %65
w: ne.|
V:3
 z8 | z8 | z4 f4 | f2 c2 d3 e | f2 f2 B4 | f4 f4 | e2 d2 c2 g2 | f2 f2 e2 f2 | d4 c2 c2 | f4 d4 | %10
w: ||Don-|na la bel- *|* la ma-|no, che|per do- nar, che|per do- nar por-|ge- ste, ra-|pi, ra-|
 c4 f4 | e2 f2 c4 | F4 f4 | f2 d2 f2 f2 | f4 f2 e2 | g2 f2 g2 a2 | g4 g2 g2- | g2 f4 f2 | %18
w: pi men|tre voi de-|ste, ca-|ra- la- dra d'a-|mor, ca- ra-|la- _ _ dra|d'a- mor, ru-|* ban- do|
 e2 c2 d4 | f2 c2 c2 c2 | A3 B c4 | c2 c4 B2 | c4 z4 | z2 c2 d2 f2 | e2 e2 f4 | B2 d2 c4 | %26
w: che fa- re-|te, se nel do-|nar _ _|to- glie- *|te,|ma cer- to|voi do- na-|te, ma cer-|
 d2 f4 e2 | d4 c2 c2 | g2 d2 e2 f2 | e4 e4 | f6 e2 | d4 c2 B2 | A2 c4 d2 | f4 e2 d2 | c4 e4 | %35
w: to voi do-|na- te, ma|cer- to voi do-|na- te,|per po-|ter poi ra-|pir, pet po-|ter poi ra-|pir, quel|
 d2 d2 f4- | f2 ed e4 | f8 | z8 | z4 c4 | f2 e2 f2 g2 | a4 a4 | z8 | f4 d4- | d2 c2 d2 e2 | %45
w: che voi da-||te,||tal-|ho- ra mi ren-|de- te,||tal- ho-|* ra mi _|
 f2 f2 e4 | f4 a4 | g4 e2 f2- | f2 f2 d4 | ^c8 | z8 | z8 | z4 z2 A2 | B2 c2 d2 B2 | c2 d2 f2 f2 | %55
w: _ ren- de-|te, no'l|fa- te'ad- al-|* tro fi-|ne,|||che|per po- ter- ne|far no- ve ra-|
 e4 e2 f2 | d2 f2 e4 | f8 | z8 | z4 z2 f2 | e2 d2 ^c2 c2 | d4 c4- | c2 c2 A4 | G8 | F8 |] %65
w: pi- ne, no-|ve ra- pi-|ne,||che|per po- ter- ne|far no-|* ve ra-|pi-|ne.|
V:4
 z8 | z8 | z8 | z8 | z8 | z8 | z8 | z8 | z8 | z8 | z8 | z8 | z4 F4 | F2 G2 F2 B,2 | F4 F2 c2 | %15
w: ||||||||||||Ca-|ra la- dra d'a-|mor, ca- ra|
 c2 d2 c2 F2 | c4 c2 c2 | B2 B2 A2 F2 | A4 G4 | F4 E2 E2 | D4 C4 | F2 E2 D4 | C4 c4 | B2 A2 G2 F2 | %24
w: la- * * dra|d'a- mor, ru-|ban- do che fa-|re- te,|se nel do-|nar to-|glie- * *|te, ma|cer- to voi do-|
 c4 F4 | z4 z2 A2 | B2 d2 c4 | z4 z2 F2 | G2 B2 A2 F2 | c4 c4 | z8 | z8 | z2 A4 G2 | F4 G2 G2 | %34
w: na- te,|ma|cer- to voi,|ma|cer- to voi do-|na- te,|||per po-|ter poi ra-|
 A4 A4 | B4 F4 | c8 | F4 F4 | D2 C2 D2 E2 | F4 F4 | z8 | z4 F4 | B2 A2 B2 c2 | d4 B2 B2 | %44
w: pir, quel|che voi|da-|te, e|s'el ru- ba- to|co- re,||e|s'el ru- ba- to|co- re, tal-|
 G2 A2 G2 c2 | B4 c4 | F8 | G4 A4 | B2 F2 G4 | A8 | z8 | z8 | z8 | z4 B4 | A2 G2 F2 F2 | c4 A4 | %56
w: ho- ra mi ren-|de- te,|no'l|fa te'ad|al- tro fi-|ne,||||che|per po- ter- ne|far no-|
 B2 d2 c4 | F4 A4 | B2 c2 d2 d2 | c2 G2 A2 F2 | G4 A4 | D4 F4- | F4 F4 | C8 | F8 |] %65
w: ve ra- pi-|ne, che|per- po- ter- ne|far no- ve ra-|pi- ne,|no- ve|_ ra-|pi-|ne.|

